img/icone-calcio.svg

<svg width="48" height="48" viewBox="0 0 48 48" fill="none" xmlns="http://www.w3.org/2000/svg">
<path d="M19 44C17.0333 44 15.375 43.325 14.025 41.975C12.675 40.625 12 38.9667 12 37C12 36.7 12.0417 36.4667 12.125 36.3C12.2083 36.1333 12.2 36 12.1 35.9C12 35.8 11.8667 35.7917 11.7 35.875C11.5333 35.9583 11.3 36 11 36C9.03333 36 7.375 35.325 6.025 33.975C4.675 32.625 4 30.9667 4 29C4 27.0333 4.675 25.375 6.025 24.025C7.375 22.675 9.03333 22 11 22C11.7667 22 12.4667 22.1 13.1 22.3C13.7333 22.5 14.3333 22.8 14.9 23.2L23.2 14.9C22.8 14.3333 22.5 13.7333 22.3 13.1C22.1 12.4667 22 11.7667 22 11C22 9.03333 22.675 7.375 24.025 6.025C25.375 4.675 27.0333 4 29 4C30.9667 4 32.625 4.675 33.975 6.025C35.325 7.375 36 9.03333 36 11C36 11.3 35.9583 11.5333 35.875 11.7C35.7917 11.8667 35.8 12 35.9 12.1C36 12.2 36.1333 12.2083 36.3 12.125C36.4667 12.0417 36.7 12 37 12C38.9667 12 40.625 12.675 41.975 14.025C43.325 15.375 44 17.0333 44 19C44 20.9667 43.325 22.625 41.975 23.975C40.625 25.325 38.9667 26 37 26C36.2333 26 35.5333 25.9 34.9 25.7C34.2667 25.5 33.6667 25.2 33.1 24.8L24.8 33.1C25.2 33.6667 25.5 34.2667 25.7 34.9C25.9 35.5333 26 36.2333 26 37C26 38.9667 25.325 40.625 23.975 41.975C22.625 43.325 20.9667 44 19 44ZM19 40C19.8667 40 20.5833 39.7167 21.15 39.15C21.7167 38.5833 22 37.8667 22 37C22 36.7 21.9583 36.4083 21.875 36.125C21.7917 35.8417 21.6667 35.5667 21.5 35.3C20.9333 34.5 20.7 33.6417 20.8 32.725C20.9 31.8083 21.3 31 22 30.3L30.3 22C31 21.3 31.8083 20.9 32.725 20.8C33.6417 20.7 34.5 20.9333 35.3 21.5C35.5667 21.6667 35.8417 21.7917 36.125 21.875C36.4083 21.9583 36.7 22 37 22C37.8667 22 38.5833 21.7167 39.15 21.15C39.7167 20.5833 40 19.8667 40 19C40 18.1333 39.7167 17.4167 39.15 16.85C38.5833 16.2833 37.8667 16 37 16C35.8333 16 35.0167 15.9417 34.55 15.825C34.0833 15.7083 33.6 15.4 33.1 14.9C32.6 14.4 32.2917 13.9167 32.175 13.45C32.0583 12.9833 32 12.1667 32 11C32 10.1333 31.7167 9.41667 31.15 8.85C30.5833 8.28333 29.8667 8 29 8C28.1333 8 27.4167 8.28333 26.85 8.85C26.2833 9.41667 26 10.1333 26 11C26 11.3667 26.0333 11.675 26.1 11.925C26.1667 12.175 26.3 12.4333 26.5 12.7C27.0667 13.5 27.3 14.3583 27.2 15.275C27.1 16.1917 26.7 17 26 17.7L17.7 26C17 26.7 16.1917 27.1 15.275 27.2C14.3583 27.3 13.5 27.0667 12.7 26.5C12.4333 26.3333 12.1583 26.2083 11.875 26.125C11.5917 26.0417 11.3 26 11 26C10.1333 26 9.41667 26.2833 8.85 26.85C8.28333 27.4167 8 28.1333 8 29C8 29.8667 8.28333 30.5833 8.85 31.15C9.41667 31.7167 10.1333 32 11 32C12.1667 32 12.9833 32.0583 13.45 32.175C13.9167 32.2917 14.4 32.6 14.9 33.1C15.4 33.6 15.7083 34.0833 15.825 34.55C15.9417 35.0167 16 35.8333 16 37C16 37.8667 16.2833 38.5833 16.85 39.15C17.4167 39.7167 18.1333 40 19 40Z" fill="#FF9700"/>
</svg>

<svg xmlns="http://www.w3.org/2000/svg" width="48" height="48" fill="none" viewBox="0 0 48 48"><path fill="#ff9700" d="M19 44q-2.95 0-4.975-2.025T12 37q0-.45.125-.7t-.025-.4-.4-.025T11 36q-2.95 0-4.975-2.025T4 29t2.025-4.975T11 22q1.15 0 2.1.3t1.8.9l8.3-8.3q-.6-.85-.9-1.8T22 11q0-2.95 2.025-4.975T29 4t4.975 2.025T36 11q0 .45-.125.7t.025.4.4.025T37 12q2.95 0 4.975 2.025T44 19t-2.025 4.975T37 26q-1.15 0-2.1-.3t-1.8-.9l-8.3 8.3q.6.85.9 1.8T26 37q0 2.95-2.025 4.975T19 44m0-4q1.3 0 2.15-.85T22 37q0-.45-.125-.875a3.3 3.3 0 0 0-.375-.825q-.85-1.2-.7-2.575T22 30.3l8.3-8.3q1.05-1.05 2.425-1.2t2.575.7q.4.25.825.375T37 22q1.3 0 2.15-.85T40 19t-.85-2.15T37 16q-1.75 0-2.45-.175T33.1 14.9t-.925-1.45T32 11q0-1.3-.85-2.15T29 8t-2.15.85T26 11q0 .55.1.925t.4.775q.85 1.2.7 2.575T26 17.7L17.7 26q-1.05 1.05-2.425 1.2t-2.575-.7a3.3 3.3 0 0 0-.825-.375A3 3 0 0 0 11 26q-1.3 0-2.15.85T8 29t.85 2.15T11 32q1.75 0 2.45.175t1.45.925.925 1.45T16 37q0 1.3.85 2.15T19 40"/></svg>
